public/assets/svgs/clients/acquia.svg

<svg height="24" viewBox="0 0 112 24" width="112" xmlns="http://www.w3.org/2000/svg"><path d="m106.771493 18.6067447c-1.218682 1.309776-2.673184 1.8491201-4.56021 1.8491201-1.729719 0-3.2235716-.6548881-4.2849942-1.9647103-1.0614227-1.3097761-1.6118092-2.8892473-1.6118092-4.892426 0-1.8491201.5503865-3.4285912 1.7297188-4.73836728 1.1793795-1.30982228 2.6732316-1.9647103 4.2850406-1.9647103 1.886979 0 3.380832.65488802 4.442254 1.9647103 1.061423 1.30977608 1.729719 2.88924718 1.729719 4.89242598 0 1.9261956-.511036 3.5441814-1.729719 4.8539575zm1.493853-11.47995955-.825557-.80899292c-1.729718-1.84912007-3.773957-2.77365699-6.054063-2.77365699-2.5552746 0-4.8353799.92453692-6.4471419 2.88924722-1.7297188 1.84912007-2.555275 4.35312814-2.555275 7.12683134 0 2.8892473.9434658 5.3932554 2.555275 7.2423754 1.7297188 1.8491201 4.0491273 2.8892472 6.6044019 2.8892472 2.162149 0 4.049128-.9245831 5.896803-2.5040081l.668297-.6549342v2.658113h3.891914v-19.10752783h-3.891914v3.04330588zm-30.1523585 6.58748735c0 3.9679353-2.0048885 6.4719434-5.3857197 6.4719434-3.3808311 0-5.3857668-2.5040081-5.3857668-6.4719434v-9.63079323h-3.8918673v9.63079323c0 5.7784944 3.8918673 10.0160786 9.2776341 10.0160786s9.2776341-4.1990695 9.2776341-10.0160786v-9.63079323h-3.8918673v9.63079323zm7.5479153 9.4767808h3.8918673v-19.10757403h-3.8918673zm-25.0024105-9.3226759c0-5.54736021-4.442301-9.90048837-9.9459775-10.1316226-.1179096 0-.2751697.115544-.1179096.2696489.3931264.80899292 1.3365923 2.61959832 2.9484014 3.81383037 2.1621485 1.57942494 3.3808312 3.54413523 3.3808312 5.93255313 0 3.0433521-2.4373653 6.4719433-6.4471895 6.4719433-4.0491273 0-6.4471894-3.4285912-6.4471894-6.4719433 0-2.3884179 1.3366395-4.35312819 3.3808311-5.93255313 1.6118092-1.30982228 2.6732319-2.99711602 2.9484487-3.80610894.1179096-.11559024 0-.2696489-.1179568-.2696489-5.6609365.115544-10.1031903 4.46099697-10.1031903 9.96979627 0 4.4687184 3.8918673 9.7464297 10.2211471 9.7464297 2.8304447 0 5.2284596-.8089929 6.9975288-2.2343592l2.0048885 1.8491201h5.6609365l-5.3071132-4.8924722c.5503865-1.1557174.943513-2.6195983.943513-4.3146135zm-53.38574664 2.6195983 4.56016344-9.90048834 4.5995139 9.90048834zm4.44225384-16.4879757c-.6683434 0-1.2186827.38523913-1.4938524.92453692l-10.2211471 22.26647018h4.04912733l1.49385234-3.1588961h12.38329563l1.4938523 3.1588961h4.0491746l-10.1425407-22.11236529c-.2751697-.65488802-.9434659-1.07864181-1.611762-1.07864181zm21.3857129 7.39648028c1.729766 0 3.3808311.65488802 4.442301 1.69501517.3930793-1.19423205 1.0614226-2.2343592 1.8869788-3.31300101-1.729766-1.30982228-3.8919145-2.1188152-6.3292798-2.1188152-5.6609365.0385609-10.37836 4.54579396-10.37836 10.20869816 0 5.5473602 4.5602106 10.1316226 10.3390568 10.1316226 2.4373653 0 4.5602106-.8089929 6.3292326-2.118769-.8255562-1.0401271-1.3365923-2.1187689-1.8869788-3.313001-1.2186355 1.0401272-2.6731846 1.6950152-4.4422538 1.6950152-3.6166977 0-6.6044024-2.8892472-6.6044024-6.4718971.0393033-3.5056206 2.9877047-6.39486782 6.6437056-6.39486782z" fill="#8e9ba0" fill-rule="evenodd"/></svg>

<svg width="112px" height="24px" viewBox="0 0 112 24" version="1.1" xmlns="http://www.w3.org/2000/svg" xmlns:xlink="http://www.w3.org/1999/xlink">
  <g id="Symbols" stroke="none" stroke-width="1" fill="none" fill-rule="evenodd">
    <g id="logo-/-blue" fill="#8e9ba0">
      <path d="M106.771493,18.6067447 C105.552811,19.9165207 104.098309,20.4558648 102.211283,20.4558648 C100.481564,20.4558648 98.9877114,19.8009767 97.9262888,18.4911545 C96.8648661,17.1813784 96.3144796,15.6019072 96.3144796,13.5987285 C96.3144796,11.7496084 96.8648661,10.1701373 98.0441984,8.86036122 C99.2235779,7.55053894 100.71743,6.89565092 102.329239,6.89565092 C104.216218,6.89565092 105.710071,7.55053894 106.771493,8.86036122 C107.832916,10.1701373 108.501212,11.7496084 108.501212,13.7527872 C108.501212,15.6789828 107.990176,17.2969686 106.771493,18.6067447 Z M108.265346,7.12678515 L107.439789,6.31779223 C105.710071,4.46867216 103.665832,3.54413524 101.385726,3.54413524 C98.8304514,3.54413524 96.5503461,4.46867216 94.9385841,6.43338246 C93.2088653,8.28250253 92.3833091,10.7865106 92.3833091,13.5602138 C92.3833091,16.4494611 93.3267749,18.9534692 94.9385841,20.8025892 C96.6683029,22.6517093 98.9877114,23.6918364 101.542986,23.6918364 C103.705135,23.6918364 105.592114,22.7672533 107.439789,21.1878283 L108.108086,20.5328941 L108.108086,23.1910071 L112,23.1910071 L112,4.08347927 L108.108086,4.08347927 L108.108086,7.12678515 L108.265346,7.12678515 Z M78.1129875,13.7142725 C78.1129875,17.6822078 76.108099,20.1862159 72.7272678,20.1862159 C69.3464367,20.1862159 67.341501,17.6822078 67.341501,13.7142725 L67.341501,4.08347927 L63.4496337,4.08347927 L63.4496337,13.7142725 C63.4496337,19.4927669 67.341501,23.7303511 72.7272678,23.7303511 C78.1130346,23.7303511 82.0049019,19.5312816 82.0049019,13.7142725 L82.0049019,4.08347927 L78.1130346,4.08347927 L78.1130346,13.7142725 L78.1129875,13.7142725 Z M85.6609028,23.1910533 L89.5527701,23.1910533 L89.5527701,4.08347927 L85.6609028,4.08347927 L85.6609028,23.1910533 Z M60.6584923,13.8683774 C60.6584923,8.32101719 56.2161913,3.96788903 50.7125148,3.7367548 C50.5946052,3.7367548 50.4373451,3.8522988 50.5946052,4.0064037 C50.9877316,4.81539662 51.9311975,6.62600202 53.5430066,7.82023407 C55.7051551,9.39965901 56.9238378,11.3643693 56.9238378,13.7527872 C56.9238378,16.7961393 54.4864725,20.2247305 50.4766483,20.2247305 C46.427521,20.2247305 44.0294589,16.7961393 44.0294589,13.7527872 C44.0294589,11.3643693 45.3660984,9.39965901 47.41029,7.82023407 C49.0220992,6.51041179 50.0835219,4.82311805 50.3587387,4.01412513 C50.4766483,3.89853489 50.3587387,3.74447623 50.2407819,3.74447623 C44.5798454,3.86002023 40.1375916,8.2054732 40.1375916,13.7142725 C40.1375916,18.1829909 44.0294589,23.4607022 50.3587387,23.4607022 C53.1891834,23.4607022 55.5871983,22.6517093 57.3562675,21.226343 L59.361156,23.0754631 L65.0220925,23.0754631 L59.7149793,18.1829909 C60.2653658,17.0272735 60.6584923,15.5633926 60.6584923,13.8683774 L60.6584923,13.8683774 Z M7.27274566,16.4879757 L11.8329091,6.58748736 L16.432423,16.4879757 L7.27274566,16.4879757 Z M11.7149995,0 C11.0466561,0 10.4963168,0.385239127 10.2211471,0.924536917 L0,23.1910071 L4.04912733,23.1910071 L5.54297967,20.032111 L17.9262753,20.032111 L19.4201276,23.1910071 L23.4693022,23.1910071 L13.3267615,1.07864181 C13.0515918,0.423753793 12.3832956,0 11.7149995,0 L11.7149995,0 Z M33.1007124,7.39648028 C34.8304784,7.39648028 36.4815435,8.0513683 37.5430134,9.09149545 C37.9360927,7.8972634 38.604436,6.85713625 39.4299922,5.77849444 C37.7002262,4.46867216 35.5380777,3.65967924 33.1007124,3.65967924 C27.4397759,3.69824014 22.7223524,8.2054732 22.7223524,13.8683774 C22.7223524,19.4157376 27.282563,24 33.0614092,24 C35.4987745,24 37.6216198,23.1910071 39.3906418,21.881231 C38.5650856,20.8411039 38.0540495,19.7624621 37.503663,18.56823 C36.2850275,19.6083572 34.8304784,20.2632452 33.0614092,20.2632452 C29.4447115,20.2632452 26.4570068,17.373998 26.4570068,13.7913481 C26.4963101,10.2857275 29.4447115,7.39648028 33.1007124,7.39648028 L33.1007124,7.39648028 Z" id="Logo"></path>
    </g>
  </g>
</svg>
